symbols/web/phone_disabled/materialsymbolsoutlined/phone_disabled_wght700gradN25fill1_24px.svg

<svg xmlns="http://www.w3.org/2000/svg" height="24" width="24"><path d="M17.925 14.225 15.75 12.1q.15-.175.25-.3t.25-.425l-2.475-2.2q-.525-.45-.675-1.025-.15-.575-.025-1.275l.6-2.8q.2-.875.8-1.3.6-.425 1.475-.425h3.775q.85 0 1.375.525t.525 1.375q0 2.55-1 5.188-1 2.637-2.7 4.787Zm-13.65 7.3q-.725 0-1.287-.538-.563-.537-.563-1.312v-4.15q0-.825.438-1.337.437-.513 1.237-.688l2.7-.575q.65-.15 1.25-.013.6.138 1.075.588l2.55 2.45q.2-.125.462-.3.263-.175.488-.375l-10.975-11 1.625-1.55L21.25 20.7l-1.575 1.55-4.875-4.825q-2.3 1.875-4.95 2.988-2.65 1.112-5.575 1.112Z"/></svg>

<svg xmlns="http://www.w3.org/2000/svg" height="24" width="24"><path d="M17.925 14.225 15.75 12.1Q15.9 11.925 16 11.8Q16.1 11.675 16.25 11.375L13.775 9.175Q13.25 8.725 13.1 8.15Q12.95 7.575 13.075 6.875L13.675 4.075Q13.875 3.2 14.475 2.775Q15.075 2.35 15.95 2.35H19.725Q20.575 2.35 21.1 2.875Q21.625 3.4 21.625 4.25Q21.625 6.8 20.625 9.438Q19.625 12.075 17.925 14.225ZM4.275 21.525Q3.55 21.525 2.988 20.987Q2.425 20.45 2.425 19.675V15.525Q2.425 14.7 2.863 14.188Q3.3 13.675 4.1 13.5L6.8 12.925Q7.45 12.775 8.05 12.912Q8.65 13.05 9.125 13.5L11.675 15.95Q11.875 15.825 12.137 15.65Q12.4 15.475 12.625 15.275L1.65 4.275L3.275 2.725L21.25 20.7L19.675 22.25L14.8 17.425Q12.5 19.3 9.85 20.413Q7.2 21.525 4.275 21.525Z"/></svg>
